X: 20
M:2/4
L:1/16
K:Bb
uF2|BFdB fdbf|dBAc BAGF|GEDE CEcd|ecdB BAGF|
|:vFE|DB,FD BFdB|fbfd BAGF|GBAc Bdfa|bgf=e .f2((3fga)|
bfdB gecA|BGec BAGF|GEDE CEcd|ecAc B2:|


